frontend/src/assets/icons/donggle-logo.svg

<svg width="current" height="curretn" viewBox="0 0 157 157" fill="none" xmlns="http://www.w3.org/2000/svg">
<path d="M78.0341 1.93683L77.9702 1.9339L77.9065 1.93913C76.6868 2.03923 75.4856 2.11983 74.3009 2.19933C71.3232 2.39913 68.4499 2.59193 65.6495 3.06982C21.1033 10.6718 -3.56514 52.1586 1.79334 89.4712C7.0544 126.105 39.2599 155.571 76.3242 155.81C87.7915 155.884 99.2591 155.853 110.721 155.823L112.229 155.819C124.194 155.787 136.155 155.76 148.113 155.857C150.675 155.878 152.581 155.402 153.768 154.015C154.918 152.673 155.163 150.726 155.145 148.477C155.057 137.336 155.056 126.194 155.054 115.047L155.054 114.573C155.053 103.269 155.051 91.961 154.956 80.6527C154.827 65.3193 151.288 50.7572 142.721 37.7344C127.548 14.6727 105.798 3.20907 78.0341 1.93683ZM12.2712 87.6102C7.36913 51.9264 33.1458 17.3765 70.1598 13.1886C95.5294 11.1414 115.719 19.4717 130.642 38.8051C160.617 77.6385 138.266 135.161 89.9795 144.158C52.8151 151.082 17.4084 125.006 12.2712 87.6102Z" fill="black" stroke="black" stroke-width="2"/>
</svg>

<svg width="current" height="curretn" viewBox="0 0 157 157" fill="none" xmlns="http://www.w3.org/2000/svg"><path d="m78.034 1.937-.064-.003-.064.005c-1.22.1-2.42.18-3.605.26-2.978.2-5.851.393-8.651.87C21.103 10.673-3.566 52.16 1.793 89.472c5.261 36.634 37.467 66.1 74.531 66.339 11.468.074 22.935.043 34.397.013l1.508-.004c11.965-.032 23.926-.059 35.884.038 2.562.021 4.468-.455 5.655-1.842 1.15-1.342 1.395-3.289 1.377-5.538-.088-11.141-.089-22.283-.091-33.43v-.474c-.001-11.304-.003-22.612-.098-33.92-.129-15.334-3.668-29.896-12.235-42.919C127.548 14.673 105.798 3.21 78.034 1.937zM12.271 87.61C7.37 51.926 33.146 17.377 70.16 13.19c25.37-2.048 45.559 6.283 60.482 25.616 29.975 38.833 7.624 96.356-40.662 105.353-37.165 6.924-72.572-19.152-77.709-56.548z" fill="#000" stroke="#000" stroke-width="2"/></svg>
